X: 1056
T: The Humors of Cavan
R:double jig
N:"collected by O'Reilly"
B:O'Neill's 1056
Z:Transcribed by henrik.norbeck@mailbox.swipnet.se
M:6/8
L:1/8
K:A
E|E>AA A2f|ecA dcd|cde efg|a>BB B2c|
E>AA A2f|ecA dcd|cde efg|a>AA A2:|
d|cBA BAF|F>BB B2d|cBA BAF|E>FA A2d|
cBA BAF|dcd fga|ecA BAF|EFA A2:|


